img/ural.svg

<svg width="289" height="58" viewBox="0 0 289 58" fill="none" xmlns="http://www.w3.org/2000/svg">
<g clip-path="url(#clip0_2_32)">
<path fill-rule="evenodd" clip-rule="evenodd" d="M-3.93429e-05 31.0623C-0.00181769 35.1936 0.945661 39.2699 2.76909 42.9759C4.59252 46.6818 7.24301 49.9182 10.5155 52.4345C18.2517 42.2263 20.9888 30.8269 20.9888 9.29469V4.80272C19.1709 5.20783 17.4019 5.8077 15.7122 6.59196V11.5972C15.7122 25.6192 12.8576 32.8516 6.70624 39.2882C5.02163 35.1014 4.67004 30.4957 5.69958 26.1012C6.72911 21.7067 9.08947 17.7379 12.4578 14.7378V8.38122C8.63703 10.8007 5.49063 14.1497 3.31217 18.1159C1.13371 22.082 -0.0057945 26.536 -3.93429e-05 31.0623ZM19.799 57.0441C22.0961 57.6809 24.4698 57.9978 26.8533 57.9859C29.2523 57.9987 31.6417 57.6818 33.9546 57.0441C30.7802 41.9485 29.5104 32.2536 29.5104 7.46776V0.117699C28.6404 0.0376532 27.7656 -1.52588e-05 26.8909 -1.52588e-05C26.0162 -1.52588e-05 25.1085 0.0376532 24.2338 0.117699V7.46776C24.2432 32.2536 22.9734 41.9485 19.799 57.0441ZM32.7742 9.29469C32.7742 30.8269 35.5112 42.2263 43.2474 52.4345C46.6906 49.809 49.4477 46.3879 51.2829 42.4635C53.1182 38.5392 53.9771 34.2282 53.7862 29.8991C53.5954 25.5701 52.3604 21.3517 50.1869 17.6045C48.0134 13.8573 44.966 10.6927 41.3052 8.38122V14.7378C43.6205 16.7797 45.4758 19.2911 46.748 22.1056C48.0201 24.92 48.68 27.9731 48.6839 31.0623C48.6971 33.8857 48.1438 36.683 47.0568 39.2882C40.9101 32.8893 38.0508 25.6334 38.0508 11.5972V6.59196C36.3614 5.80709 34.5923 5.2072 32.7742 4.80272V9.29469Z" fill="white"/>
<path fill-rule="evenodd" clip-rule="evenodd" d="M121.555 41.181C120.173 41.1745 118.824 40.7582 117.678 39.9847C116.532 39.2112 115.641 38.1152 115.117 36.835C114.593 35.5548 114.459 34.1478 114.733 32.7916C115.007 31.4355 115.676 30.191 116.656 29.2153C117.636 28.2396 118.882 27.5764 120.238 27.3094C121.594 27.0425 122.999 27.1837 124.275 27.7153C125.55 28.2469 126.64 29.1451 127.407 30.2964C128.173 31.4477 128.582 32.8005 128.581 34.1841C128.591 35.109 128.416 36.0265 128.066 36.8825C127.716 37.7385 127.198 38.5155 126.543 39.1678C125.888 39.8201 125.109 40.3343 124.253 40.6801C123.396 41.0259 122.478 41.1962 121.555 41.181ZM122.937 20.68C119.147 20.68 116.306 22.1208 114.91 24.508H114.599V21.4098H107.752V54.219H114.599V43.8461H114.91C116.32 46.2333 119.142 47.6694 122.937 47.6694C130.039 47.6694 135.635 41.6943 135.635 34.1841C135.635 26.674 130.039 20.68 122.937 20.68Z" fill="white"/>
<path fill-rule="evenodd" clip-rule="evenodd" d="M100.434 13.7301L92.6463 30.0971L82.1589 13.7301H73.7455L89.1286 37.4754L88.8558 38.0451C88.1645 39.4577 87.3274 40.0887 85.3239 40.0887H80.4471V46.9773H86.2363C90.9392 46.9773 92.8203 45.7012 94.7908 41.6566L108.264 13.7301H100.434Z" fill="white"/>
<path fill-rule="evenodd" clip-rule="evenodd" d="M275.423 41.1481C271.661 41.1481 268.839 38.3747 268.839 34.622C268.812 33.7491 268.964 32.8799 269.286 32.0681C269.607 31.2562 270.091 30.5188 270.708 29.9012C271.325 29.2837 272.061 28.7991 272.872 28.4773C273.683 28.1555 274.551 28.0033 275.423 28.03C279.185 28.03 281.941 30.8552 281.941 34.622C281.963 35.485 281.809 36.3435 281.49 37.1452C281.17 37.9469 280.69 38.6752 280.081 39.2856C279.471 39.896 278.744 40.3759 277.943 40.6961C277.142 41.0163 276.285 41.1701 275.423 41.1481ZM277.135 22.6246C273.26 22.6246 270.212 24.169 268.369 26.8623H268.063C268.59 21.763 270.917 19.484 276.575 18.7306L286.874 17.384V10.7449L275.366 12.4259C265.758 13.8102 261.935 18.2551 261.385 28.209C260.769 39.5095 264.592 47.6741 275.587 47.6741C283.159 47.6741 289.024 42.0239 289.024 34.6267C289.024 27.5168 284.18 22.6293 277.153 22.6293L277.135 22.6246Z" fill="white"/>
<path fill-rule="evenodd" clip-rule="evenodd" d="M152.65 41.181C151.265 41.1894 149.909 40.7858 148.753 40.0214C147.597 39.2569 146.694 38.1661 146.159 36.8872C145.623 35.6083 145.479 34.199 145.744 32.8379C146.01 31.4768 146.673 30.2253 147.649 29.242C148.626 28.2588 149.873 27.5881 151.231 27.315C152.589 27.0419 153.997 27.1788 155.277 27.7081C156.557 28.2375 157.652 29.1356 158.422 30.2886C159.191 31.4415 159.602 32.7973 159.601 34.1841C159.611 35.1026 159.438 36.0138 159.093 36.8648C158.748 37.7158 158.237 38.4894 157.59 39.1406C156.943 39.7919 156.173 40.3077 155.325 40.658C154.477 41.0083 153.567 41.1861 152.65 41.181ZM159.601 24.5222H159.267C157.856 22.1349 154.983 20.6941 151.272 20.6941C144.175 20.6941 138.574 26.674 138.574 34.1841C138.574 41.6943 144.185 47.6694 151.272 47.6694C154.992 47.6694 157.856 46.2333 159.267 43.8461H159.601V46.9443H166.448V21.4239H159.601V24.5222Z" fill="white"/>
<path fill-rule="evenodd" clip-rule="evenodd" d="M215.391 27.272C216.715 27.2411 218.017 27.6106 219.128 28.3321C220.238 29.0536 221.106 30.0937 221.617 31.3166L227.59 28.6939C226.024 23.8441 221.18 20.6894 215.245 20.6894C207.198 20.6894 201.63 26.5233 201.63 34.1794C201.63 41.8355 207.198 47.6647 215.245 47.6647C221.18 47.6647 226.024 44.5335 227.59 39.6837L221.617 37.0563C221.107 38.2801 220.239 39.3212 219.129 40.0436C218.018 40.766 216.715 41.1362 215.391 41.1057C211.497 41.1057 208.694 38.2241 208.694 34.1794C208.694 30.1348 211.488 27.272 215.391 27.272Z" fill="white"/>
<path fill-rule="evenodd" clip-rule="evenodd" d="M175.624 21.4616L174.476 37.2824C174.293 39.7591 173.493 40.6725 171.598 40.6725H169.924V47.1232H174.006C178.596 47.1232 180.59 44.9385 180.961 39.8344L181.822 28.096H190.287V46.9302H197.205V21.4616H175.624Z" fill="white"/>
<path fill-rule="evenodd" clip-rule="evenodd" d="M249.317 21.4239L238.322 37.8191V21.4239H231.475V46.9443H238.684L249.609 30.6527V46.9443H256.452V21.4239H249.317Z" fill="white"/>
</g>
<defs>
<clipPath id="clip0_2_32">
<rect width="289" height="58" fill="white"/>
</clipPath>
</defs>
</svg>

<svg xmlns="http://www.w3.org/2000/svg" width="289" height="58" fill="none"><g fill="#fff" fill-rule="evenodd" clip-path="url(#a)" clip-rule="evenodd"><path d="M0 31.062a26.96 26.96 0 0 0 2.77 11.914 26.927 26.927 0 0 0 7.745 9.459C18.252 42.225 20.99 30.826 20.99 9.294V4.803a25.93 25.93 0 0 0-5.277 1.789v5.005c0 14.022-2.854 21.255-9.006 27.691a21.93 21.93 0 0 1 5.752-24.55V8.38a26.783 26.783 0 0 0-9.146 9.735A26.821 26.821 0 0 0 0 31.062Zm19.799 25.982c2.297.637 4.67.954 7.054.942a26.191 26.191 0 0 0 7.102-.942C30.78 41.95 29.51 32.254 29.51 7.468V.118a29.502 29.502 0 0 0-5.277 0v7.35c.01 24.786-1.26 34.48-4.434 49.576Zm12.975-47.75c0 21.533 2.737 32.932 10.473 43.14a26.832 26.832 0 0 0 8.036-9.97 26.866 26.866 0 0 0-1.096-24.86 26.825 26.825 0 0 0-8.882-9.223v6.357a21.79 21.79 0 0 1 7.379 16.324c.013 2.824-.54 5.621-1.627 8.226-6.147-6.399-9.006-13.655-9.006-27.69V6.591a25.844 25.844 0 0 0-5.277-1.79v4.493ZM121.555 41.181a6.988 6.988 0 0 1-6.438-4.346 7.01 7.01 0 0 1 1.539-7.62 6.99 6.99 0 0 1 7.619-1.5 7.002 7.002 0 0 1 4.306 6.47 6.932 6.932 0 0 1-2.038 4.983 6.918 6.918 0 0 1-4.988 2.013Zm1.382-20.501c-3.79 0-6.631 1.44-8.027 3.828h-.311V21.41h-6.847v32.809h6.847V43.846h.311c1.41 2.387 4.232 3.823 8.027 3.823 7.102 0 12.698-5.975 12.698-13.485s-5.596-13.504-12.698-13.504ZM100.434 13.73l-7.788 16.367L82.16 13.73h-8.413l15.383 23.745-.273.57c-.691 1.413-1.529 2.044-3.532 2.044h-4.877v6.888h5.79c4.702 0 6.583-1.276 8.554-5.32l13.473-27.927h-7.83ZM275.423 41.148c-3.762 0-6.584-2.773-6.584-6.526a6.39 6.39 0 0 1 .447-2.554 6.39 6.39 0 0 1 6.137-4.038c3.762 0 6.518 2.825 6.518 6.592a6.38 6.38 0 0 1-1.86 4.664 6.36 6.36 0 0 1-4.658 1.862Zm1.712-18.523c-3.875 0-6.923 1.544-8.766 4.237h-.306c.527-5.099 2.854-7.378 8.512-8.131l10.299-1.347v-6.64l-11.508 1.682c-9.608 1.384-13.431 5.83-13.981 15.783-.616 11.3 3.207 19.465 14.202 19.465 7.572 0 13.437-5.65 13.437-13.047 0-7.11-4.844-11.998-11.871-11.998l-.018-.004ZM152.65 41.181a6.988 6.988 0 0 1-6.491-4.294 7.01 7.01 0 0 1 1.49-7.645 6.994 6.994 0 0 1 7.628-1.534 6.999 6.999 0 0 1 4.324 6.476 6.935 6.935 0 0 1-2.011 4.957 6.913 6.913 0 0 1-4.94 2.04Zm6.951-16.659h-.334c-1.411-2.387-4.284-3.828-7.995-3.828-7.097 0-12.698 5.98-12.698 13.49s5.611 13.485 12.698 13.485c3.72 0 6.584-1.436 7.995-3.823h.334v3.098h6.847v-25.52h-6.847v3.098ZM215.391 27.272a6.579 6.579 0 0 1 6.226 4.045l5.973-2.623c-1.566-4.85-6.41-8.005-12.345-8.005-8.047 0-13.615 5.834-13.615 13.49 0 7.657 5.568 13.486 13.615 13.486 5.935 0 10.779-3.132 12.345-7.981l-5.973-2.628a6.58 6.58 0 0 1-6.226 4.05c-3.894 0-6.697-2.882-6.697-6.927 0-4.044 2.794-6.907 6.697-6.907ZM175.624 21.462l-1.148 15.82c-.183 2.477-.983 3.39-2.878 3.39h-1.674v6.451h4.082c4.59 0 6.584-2.184 6.955-7.289l.861-11.738h8.465V46.93h6.918V21.462h-21.581ZM249.317 21.424l-10.995 16.395V21.424h-6.847v25.52h7.209l10.925-16.291v16.291h6.843v-25.52h-7.135Z"/></g><defs><clipPath id="a"><path fill="#fff" d="M0 0h289v58H0z"/></clipPath></defs></svg>
